build/img/header/whatsap.svg

<svg width="29" height="29" viewBox="0 0 29 29" fill="none" xmlns="http://www.w3.org/2000/svg">
<g filter="url(#filter0_i_556_982)">
<circle cx="14.5" cy="14.5" r="14.5" fill="url(#paint0_linear_556_982)"/>
</g>
<g clip-path="url(#clip0_556_982)">
<path d="M7.99902 21.0145C8.15272 20.455 8.30095 19.9157 8.44917 19.3775C8.61709 18.7676 8.78337 18.1572 8.95511 17.5484C8.9678 17.5081 8.97158 17.4655 8.9662 17.4236C8.96082 17.3817 8.94639 17.3414 8.92393 17.3056C8.34127 16.2671 8.04227 15.0936 8.057 13.9029C8.08326 10.9362 9.89041 8.38794 12.7144 7.43349C15.3945 6.52773 17.8257 7.04132 19.8916 8.97483C21.0238 10.0337 21.7069 11.3815 21.9225 12.9348C22.191 14.8798 21.7584 16.6542 20.5403 18.201C19.3736 19.6843 17.8334 20.5556 15.965 20.8264C14.4997 21.0402 13.1104 20.7793 11.7938 20.1082C11.7307 20.0779 11.6593 20.0696 11.5909 20.0847C10.4448 20.379 9.29988 20.6761 8.156 20.9762C8.11334 20.9883 8.06903 20.9987 7.99902 21.0145ZM9.68202 19.3381C9.74656 19.3233 9.78211 19.3168 9.81712 19.3075C10.456 19.1434 11.0948 18.9793 11.7315 18.8081C11.7738 18.7948 11.8185 18.7911 11.8624 18.7973C11.9063 18.8034 11.9483 18.8192 11.9853 18.8436C13.3253 19.6493 14.7633 19.9124 16.2909 19.564C19.3818 18.859 21.4433 15.8665 20.6705 12.5875C19.9337 9.46162 16.693 7.52921 13.5846 8.34309C12.3424 8.66693 11.2424 9.39269 10.4559 10.4072C9.66945 11.4217 9.2408 12.668 9.2368 13.9516C9.2368 15.1002 9.56825 16.1488 10.1956 17.1065C10.2206 17.1405 10.2369 17.1801 10.2432 17.2218C10.2494 17.2636 10.2455 17.3062 10.2317 17.3461C10.1311 17.6912 10.0375 18.038 9.94183 18.3853C9.85869 18.6943 9.77391 19.0044 9.68312 19.3381H9.68202Z" fill="white"/>
<path d="M16.8597 17.2724C16.6928 17.2516 16.5194 17.2527 16.3603 17.2062C15.4682 16.9469 14.6138 16.6045 13.8842 16.0078C13.3061 15.5336 12.8242 14.9686 12.362 14.3877C12.0606 14.0216 11.8176 13.6111 11.6417 13.1707C11.3222 12.3322 11.4929 11.59 12.0945 10.9369C12.1489 10.8751 12.2154 10.8251 12.29 10.79C12.3645 10.7549 12.4454 10.7355 12.5277 10.7329C12.682 10.7269 12.8373 10.7291 12.9916 10.7373C13.1288 10.7439 13.1972 10.8467 13.247 10.9561C13.3345 11.1508 13.4149 11.3488 13.4975 11.5462C13.6069 11.8017 13.7086 12.0593 13.8224 12.312C13.8842 12.4504 13.8831 12.5773 13.7945 12.6981C13.6649 12.8737 13.5341 13.0482 13.3974 13.2178C13.2607 13.3873 13.2464 13.4469 13.3646 13.6433C13.9208 14.5655 14.6871 15.2448 15.6903 15.6501C15.9047 15.7371 15.9774 15.7234 16.1278 15.5407C16.2923 15.3401 16.4553 15.1381 16.6168 14.9347C16.7235 14.799 16.7907 14.7668 16.9592 14.8253C17.143 14.8909 17.3213 14.9713 17.4985 15.0539C17.6965 15.1458 17.8885 15.2514 18.087 15.3416C18.1915 15.3892 18.3058 15.4149 18.4152 15.4559C18.4634 15.472 18.5048 15.504 18.5325 15.5466C18.5602 15.5892 18.5727 15.64 18.5678 15.6906C18.558 16.1703 18.4431 16.5974 18.011 16.8851C17.662 17.1225 17.2923 17.2789 16.8597 17.2724Z" fill="white"/>
</g>
<defs>
<filter id="filter0_i_556_982" x="0" y="0" width="29" height="29" filterUnits="userSpaceOnUse" color-interpolation-filters="sRGB">
<feFlood flood-opacity="0" result="BackgroundImageFix"/>
<feBlend mode="normal" in="SourceGraphic" in2="BackgroundImageFix" result="shape"/>
<feColorMatrix in="SourceAlpha" type="matrix" values="0 0 0 0 0 0 0 0 0 0 0 0 0 0 0 0 0 0 127 0" result="hardAlpha"/>
<feOffset/>
<feGaussianBlur stdDeviation="2.5"/>
<feComposite in2="hardAlpha" operator="arithmetic" k2="-1" k3="1"/>
<feColorMatrix type="matrix" values="0 0 0 0 1 0 0 0 0 1 0 0 0 0 1 0 0 0 1 0"/>
<feBlend mode="normal" in2="shape" result="effect1_innerShadow_556_982"/>
</filter>
<linearGradient id="paint0_linear_556_982" x1="21.5429" y1="8.37105e-07" x2="14.5" y2="29" gradientUnits="userSpaceOnUse">
<stop stop-color="#88EE7F"/>
<stop offset="1" stop-color="#64D85A"/>
</linearGradient>
<clipPath id="clip0_556_982">
<rect width="14" height="14.0148" fill="white" transform="translate(8 7)"/>
</clipPath>
</defs>
</svg>

<svg width="29" height="29" fill="none" xmlns="http://www.w3.org/2000/svg"><g filter="url(#filter0_i_556_982)"><circle cx="14.5" cy="14.5" r="14.5" fill="url(#paint0_linear_556_982)"/></g><g clip-path="url(#clip0_556_982)" fill="#fff"><path d="M7.999 21.015l.45-1.637c.168-.61.334-1.22.506-1.83a.292.292 0 00-.031-.242 6.783 6.783 0 01-.867-3.403c.026-2.967 1.833-5.515 4.657-6.47 2.68-.905 5.112-.392 7.178 1.542 1.132 1.059 1.815 2.407 2.03 3.96.269 1.945-.164 3.72-1.382 5.266-1.166 1.483-2.707 2.355-4.575 2.625-1.465.214-2.855-.047-4.171-.718a.313.313 0 00-.203-.023c-1.146.294-2.291.591-3.435.891a2.965 2.965 0 01-.157.039zm1.683-1.677c.065-.015.1-.021.135-.03.639-.165 1.278-.329 1.915-.5a.298.298 0 01.253.036c1.34.805 2.778 1.068 4.306.72 3.09-.705 5.152-3.697 4.38-6.976-.737-3.126-3.978-5.059-7.086-4.245a5.815 5.815 0 00-4.348 5.609c0 1.148.331 2.197.959 3.155a.26.26 0 01.036.24c-.1.344-.194.691-.29 1.038-.083.31-.168.62-.259.953h-.001z"/><path d="M16.86 17.272c-.167-.02-.34-.02-.5-.066-.892-.26-1.746-.601-2.476-1.198-.578-.474-1.06-1.04-1.522-1.62a4.598 4.598 0 01-.72-1.217c-.32-.839-.15-1.581.453-2.234a.602.602 0 01.433-.204 5.13 5.13 0 01.464.004c.137.007.205.11.255.22.088.194.168.392.25.59.11.255.212.512.325.765.062.138.061.265-.027.386-.13.176-.26.35-.398.52-.136.17-.15.229-.032.425.556.922 1.322 1.602 2.325 2.007.215.087.287.073.438-.11.164-.2.327-.402.489-.605.107-.136.174-.168.342-.11.184.066.362.146.54.229.198.092.39.197.588.288.105.047.219.073.328.114a.225.225 0 01.153.235c-.01.48-.125.906-.557 1.194-.349.237-.719.394-1.151.387z"/></g><defs><linearGradient id="paint0_linear_556_982" x1="21.543" y1="0" x2="14.5" y2="29" gradientUnits="userSpaceOnUse"><stop stop-color="#88EE7F"/><stop offset="1" stop-color="#64D85A"/></linearGradient><clipPath id="clip0_556_982"><path fill="#fff" transform="translate(8 7)" d="M0 0h14v14.015H0z"/></clipPath><filter id="filter0_i_556_982" x="0" y="0" width="29" height="29" filterUnits="userSpaceOnUse" color-interpolation-filters="sRGB"><feFlood flood-opacity="0" result="BackgroundImageFix"/><feBlend in="SourceGraphic" in2="BackgroundImageFix" result="shape"/><feColorMatrix in="SourceAlpha" values="0 0 0 0 0 0 0 0 0 0 0 0 0 0 0 0 0 0 127 0" result="hardAlpha"/><feOffset/><feGaussianBlur stdDeviation="2.5"/><feComposite in2="hardAlpha" operator="arithmetic" k2="-1" k3="1"/><feColorMatrix values="0 0 0 0 1 0 0 0 0 1 0 0 0 0 1 0 0 0 1 0"/><feBlend in2="shape" result="effect1_innerShadow_556_982"/></filter></defs></svg>
